X: 21056
M: 2/4
L: 1/16
K: Bb
V: 1 name="6"
e2g^f [g4e4] | d2f=e f4 | c2ed e4 | d2B2B2 H|]
f2 |\
"^.."b2"^.."a2"^.."g2"^.."f2 | "^.."b2"^.."a2"^.."g2"^.."f2 |\
"^.."b2"^.."a2"^.."g2"^.."f2 | e2c2c2e2 |\
"^.."a2"^.."g2"^.."f2"^.."e2 | "^.."a2"^.."g2"^.."f2"^.."e2 |\
"^.."a2"^.."g2"^.."f2"^.."e2 | [f2d2][d2B2]"^D.C."[d2B2] |]


